X:1
T:Ira, CM
T:Ira, CM
T:Heinrich Christoph (Charles) Zeuner, 1845
T:Public Domain Courtesy of the Cyber Hymnal™
C:Heinrich Christoph (Charles) Zeuner, 1845
Z:Public Domain
Z:Courtesy of the Cyber Hymnal™
%%score ( 1 2 ) 3
L:1/8
Q:1/4=95
M:3/4
K:F
V:1 treble 
V:2 treble 
V:3 bass 
V:1
 C2 | [CF][CF] [FA]2 [Fc]2 | [GB][EG] [FA]2 [Fc]2 | [FB][Fd] [Fc]2 [FA]2 | [EG]4 [EG]2 | %5
 [FA][FA] [Fc]2 [Fd]2 | [Ec][Ec] [FA]2 [Ff]2 | [Fd][FB] [FA]2 [EG]2 | F4 |] %9
V:2
 C2 | x6 | x6 | x6 | x6 | x6 | x6 | x6 | F4 |] %9
V:3
 [F,A,]2 | [F,A,][F,A,] [F,C]2 [F,A,]2 | [C,C][C,C] [F,C]2 [F,A,]2 | [D,B,][B,,B,] [F,A,]2 [F,C]2 | %4
 [C,C]4 [C,C]2 | [F,C][F,C] [F,A,]2 [B,,B,]2 | [C,G,][C,C] [F,C]2 [A,,C]2 | %7
 [B,,B,][B,,D] [C,C]2 [C,B,]2 | [F,A,]4 |] %9

